report_00007_2020-12-11T15:55:29.892Z/mainthread-work-breakdown/comparison/line/12_vs_13.svg

<svg width="640" height="500" xmlns="http://www.w3.org/2000/svg" xmlns:xlink="http://www.w3.org/1999/xlink"><path fill="#fff" d="M0 0h640v500H0z"/><defs><path id="d" stroke-width=".222" stroke="currentColor" d="M-1-1h2v2h-2z"/><path id="b" stroke-width=".222" stroke="currentColor" d="M0-1.33l-1.33 2h2.66z"/><path id="f" stroke-width=".222" stroke="currentColor" d="M0 1.33L1.265.411.782-1.067l-1.564-.009-.483 1.487z"/><use xlink:href="#b" id="c" stroke="currentColor" transform="rotate(180)"/><use xlink:href="#d" id="e" stroke="currentColor" transform="rotate(45)"/><circle id="a" stroke-width=".222" stroke="currentColor" cx="0" cy="0" r="1"/></defs><g fill="none" color="#000" stroke="currentColor"><path stroke="#000" d="M53.9 331.5h9m552.1 0h-9"/><text transform="translate(45.6 335.4)" stroke="none" fill="#000" font-family="Arial" font-size="12" text-anchor="end"><tspan>250</tspan></text></g><g fill="none" color="#000" stroke="currentColor"><path stroke="#000" d="M53.9 257h9m552.1 0h-9"/><text transform="translate(45.6 260.9)" stroke="none" fill="#000" font-family="Arial" font-size="12" text-anchor="end"><tspan>300</tspan></text></g><g fill="none" color="#000" stroke="currentColor"><path stroke="#000" d="M53.9 182.5h9m552.1 0h-9"/><text transform="translate(45.6 186.4)" stroke="none" fill="#000" font-family="Arial" font-size="12" text-anchor="end"><tspan>350</tspan></text></g><g fill="none" color="#000" stroke="currentColor"><path stroke="#000" d="M53.9 107.9h9m552.1 0h-9"/><text transform="translate(45.6 111.8)" stroke="none" fill="#000" font-family="Arial" font-size="12" text-anchor="end"><tspan>400</tspan></text></g><g fill="none" color="#000" stroke="currentColor"><path stroke="#000" d="M53.9 33.4h9m552.1 0h-9"/><text transform="translate(45.6 37.3)" stroke="none" fill="#000" font-family="Arial" font-size="12" text-anchor="end"><tspan>450</tspan></text></g><g fill="none" color="#000" stroke="currentColor"><path stroke="#000" d="M53.9 392v-9m0-364.9v9"/><text transform="translate(53.9 413.9)" stroke="none" fill="#000" font-family="Arial" font-size="12" text-anchor="middle"><tspan>0</tspan></text></g><g fill="none" color="#000" stroke="currentColor"><path stroke="#000" d="M110.6 392v-9m0-364.9v9"/><text transform="translate(110.6 413.9)" stroke="none" fill="#000" font-family="Arial" font-size="12" text-anchor="middle"><tspan>10</tspan></text></g><g fill="none" color="#000" stroke="currentColor"><path stroke="#000" d="M167.3 392v-9m0-364.9v9"/><text transform="translate(167.3 413.9)" stroke="none" fill="#000" font-family="Arial" font-size="12" text-anchor="middle"><tspan>20</tspan></text></g><g fill="none" color="#000" stroke="currentColor"><path stroke="#000" d="M223.9 392v-9m0-364.9v9"/><text transform="translate(223.9 413.9)" stroke="none" fill="#000" font-family="Arial" font-size="12" text-anchor="middle"><tspan>30</tspan></text></g><g fill="none" color="#000" stroke="currentColor"><path stroke="#000" d="M280.6 392v-9m0-364.9v9"/><text transform="translate(280.6 413.9)" stroke="none" fill="#000" font-family="Arial" font-size="12" text-anchor="middle"><tspan>40</tspan></text></g><g fill="none" color="#000" stroke="currentColor"><path stroke="#000" d="M337.3 392v-9m0-364.9v9"/><text transform="translate(337.3 413.9)" stroke="none" fill="#000" font-family="Arial" font-size="12" text-anchor="middle"><tspan>50</tspan></text></g><g fill="none" color="#000" stroke="currentColor"><path stroke="#000" d="M394 392v-9m0-364.9v9"/><text transform="translate(394 413.9)" stroke="none" fill="#000" font-family="Arial" font-size="12" text-anchor="middle"><tspan>60</tspan></text></g><g fill="none" color="#000" stroke="currentColor"><path stroke="#000" d="M450.6 392v-9m0-364.9v9"/><text transform="translate(450.6 413.9)" stroke="none" fill="#000" font-family="Arial" font-size="12" text-anchor="middle"><tspan>70</tspan></text></g><g fill="none" color="#000" stroke="currentColor"><path stroke="#000" d="M507.3 392v-9m0-364.9v9"/><text transform="translate(507.3 413.9)" stroke="none" fill="#000" font-family="Arial" font-size="12" text-anchor="middle"><tspan>80</tspan></text></g><g fill="none" color="#000" stroke="currentColor"><path stroke="#000" d="M564 392v-9m0-364.9v9"/><text transform="translate(564 413.9)" stroke="none" fill="#000" font-family="Arial" font-size="12" text-anchor="middle"><tspan>90</tspan></text></g><path stroke="#000" d="M53.9 18.1V392H615V18.1H53.9z" fill="none" color="#000"/><text transform="translate(529.1 431.9)" stroke="none" fill="#000" font-family="Arial" font-size="12" text-anchor="end" color="#000"><tspan>pages+cached+noexternal+nofonts+nosvg+noimg+nocss</tspan></text><path stroke="#9400D3" d="M537.4 428h42.2M53.9 174.9l5.7-16 5.6-2.3 5.7 19.2 5.7-18.3 5.6 1 5.7 11.2 5.7-2.6 5.6-17.7 5.7-8.9 5.7 18.5 5.6 5.8 5.7-8.9 5.7-11.3 5.6 20 5.7-.5 5.7 4.3 5.7-15.2 5.6 17.2 5.7-8.1 5.7-137 5.6 119.2 5.7 4.7 5.7 10.9 5.6 5.1 5.7 1 5.7-8.8 5.6.7 5.7 2.4 5.7-9.2 5.6 1.1 5.7-.7 5.7 8.3 5.6 5.3 5.7 7.3 5.7-27.1 5.6 10.9 5.7 18.3 5.7-9.4 5.6-11.9 5.7 16.1 5.7-14 5.6-2.3 5.7 3.7 5.7-8.8 5.6.2 5.7 7.3 5.7 22 5.6-23.6 5.7 21.9 5.7 8.1 5.7-20 5.6-10.1 5.7-1.4 5.7-.1 5.6 7.4 5.7-2.5 5.7 19.6 5.6-24.4 5.7 4.9 5.7 5.8 5.6-12.9 5.7 2.2 5.7 15.7 5.6-13.6 5.7-29.5 5.7 42.1 5.6-7.4 5.7-19.4 5.7 2.1 5.6 9.1 5.7 9 5.7-7.2 5.6 17.4 5.7-8.3 5.7 1.6 5.6-12.5 5.7 11.1 5.7 11.8 5.6-6.3 5.7-12.7 5.7 18.4 5.6-8.7 5.7-11.1 5.7-19.6 5.7 21.6 5.6 17.7 5.7-15.4 5.7-.5 5.6-2.5 5.7 3.6 5.7-9 5.6 16.7 5.7 3.9 5.7-23.1 5.6 23.5 5.7 3 5.7-28.7 5.6 7.6 5.7 17.3" fill="none" color="#000"/><text transform="translate(529.1 449.9)" stroke="none" fill="#000" font-family="Arial" font-size="12" text-anchor="end" color="#000"><tspan>pages+cached+noexternal+nofonts+nosvg+noimg+nocss+nojs</tspan></text><path stroke="#009E73" d="M537.4 446h42.2M53.9 372.7l5.7-12.4 5.6 15.1 5.7-24.7 5.7 2.6 5.6-1.4 5.7 28.3 5.7-18.9 5.6-7.5 5.7 2.7 5.7-.7 5.6 14.7 5.7-4.6 5.7-21.5 5.6 32.5 5.7-30.2 5.7 9.6 5.7 20.4 5.6-11.4 5.7-10.1 5.7-9.2 5.6 16.3 5.7 2 5.7-10.5 5.6-5.4 5.7 4.1 5.7 5.2 5.6 8.4 5.7-20.3 5.7 23.1 5.6-24.8 5.7 10.9 5.7-8.4 5.6 18.1 5.7 7.5 5.7-17.6 5.6 8.4 5.7-13 5.7 34.8 5.6-27.1 5.7 4.9 5.7-14.2 5.6 25.8 5.7-17.7 5.7 8 5.6-12.4 5.7 4.5 5.7-2.6 5.6-10 5.7 12.4 5.7-4.1 5.7-1.8 5.6 3.3 5.7-3.6 5.7 8.7 5.6 17.9 5.7-16.1 5.7 5.8 5.6-22.2 5.7 15.1 5.7-8.3 5.6 19.1 5.7-11.8 5.7-.6 5.6-5.7 5.7 1.2 5.7-6.6 5.6-.4 5.7 34.6 5.7 1.1 5.6-34 5.7-1.1 5.7 8.4 5.6 21.6 5.7-11.3 5.7-18.3 5.6 14.2 5.7-8.2 5.7 24 5.6-24.1 5.7.2 5.7 2.4 5.6-1.8 5.7 4.1 5.7-18.7 5.7 11.4 5.6 2.2 5.7 21.1 5.7-25.4 5.6.1 5.7 2 5.7 9.3 5.6-9.1 5.7-2.5 5.7 18.1 5.6-21.9 5.7-1.6 5.7 29.9 5.6-6.3L615 351" fill="none" color="#000"/><text transform="translate(529.1 467.9)" stroke="none" fill="#000" font-family="Arial" font-size="12" text-anchor="end" color="#000"><tspan>score p10=2017</tspan></text><path stroke="#56B4E9" d="M537.4 464h42.2" fill="none" color="#000"/><g><text transform="translate(529.1 485.9)" stroke="none" fill="#000" font-family="Arial" font-size="12" text-anchor="end" color="#000"><tspan>score median=4000</tspan></text><path stroke="#E69F00" d="M537.4 482h42.2" fill="none" color="#000"/></g><g fill="none" color="#000" stroke="currentColor"><path stroke="#000" d="M53.9 18.1V392H615V18.1H53.9z"/></g></svg>

<?xml version="1.0" encoding="utf-8"  standalone="no"?>
<svg 
 width="640" height="500"
 viewBox="0 0 640 500"
 xmlns="http://www.w3.org/2000/svg"
 xmlns:xlink="http://www.w3.org/1999/xlink"
>

<title>Gnuplot</title>
<desc>Produced by GNUPLOT 5.4 patchlevel 0 </desc>

<g id="gnuplot_canvas">

<rect x="0" y="0" width="640" height="500" fill="#ffffff"/>
<defs>

	<circle id='gpDot' r='0.5' stroke-width='0.5' stroke='currentColor'/>
	<path id='gpPt0' stroke-width='0.222' stroke='currentColor' d='M-1,0 h2 M0,-1 v2'/>
	<path id='gpPt1' stroke-width='0.222' stroke='currentColor' d='M-1,-1 L1,1 M1,-1 L-1,1'/>
	<path id='gpPt2' stroke-width='0.222' stroke='currentColor' d='M-1,0 L1,0 M0,-1 L0,1 M-1,-1 L1,1 M-1,1 L1,-1'/>
	<rect id='gpPt3' stroke-width='0.222' stroke='currentColor' x='-1' y='-1' width='2' height='2'/>
	<rect id='gpPt4' stroke-width='0.222' stroke='currentColor' fill='currentColor' x='-1' y='-1' width='2' height='2'/>
	<circle id='gpPt5' stroke-width='0.222' stroke='currentColor' cx='0' cy='0' r='1'/>
	<use xlink:href='#gpPt5' id='gpPt6' fill='currentColor' stroke='none'/>
	<path id='gpPt7' stroke-width='0.222' stroke='currentColor' d='M0,-1.33 L-1.33,0.67 L1.33,0.67 z'/>
	<use xlink:href='#gpPt7' id='gpPt8' fill='currentColor' stroke='none'/>
	<use xlink:href='#gpPt7' id='gpPt9' stroke='currentColor' transform='rotate(180)'/>
	<use xlink:href='#gpPt9' id='gpPt10' fill='currentColor' stroke='none'/>
	<use xlink:href='#gpPt3' id='gpPt11' stroke='currentColor' transform='rotate(45)'/>
	<use xlink:href='#gpPt11' id='gpPt12' fill='currentColor' stroke='none'/>
	<path id='gpPt13' stroke-width='0.222' stroke='currentColor' d='M0,1.330 L1.265,0.411 L0.782,-1.067 L-0.782,-1.076 L-1.265,0.411 z'/>
	<use xlink:href='#gpPt13' id='gpPt14' fill='currentColor' stroke='none'/>
	<filter id='textbox' filterUnits='objectBoundingBox' x='0' y='0' height='1' width='1'>
	  <feFlood flood-color='#FFFFFF' flood-opacity='1' result='bgnd'/>
	  <feComposite in='SourceGraphic' in2='bgnd' operator='atop'/>
	</filter>
	<filter id='greybox' filterUnits='objectBoundingBox' x='0' y='0' height='1' width='1'>
	  <feFlood flood-color='lightgrey' flood-opacity='1' result='grey'/>
	  <feComposite in='SourceGraphic' in2='grey' operator='atop'/>
	</filter>
</defs>
<g fill="none" color="#FFFFFF" stroke="black" stroke-width="1.00" stroke-linecap="butt" stroke-linejoin="miter">
</g>
<g fill="none" color="black" stroke="currentColor" stroke-width="1.00" stroke-linecap="butt" stroke-linejoin="miter">
	<path stroke='black'  d='M53.9,331.5 L62.9,331.5 M615.0,331.5 L606.0,331.5  '/>	<g transform="translate(45.6,335.4)" stroke="none" fill="black" font-family="Arial" font-size="12.00"  text-anchor="end">
		<text><tspan font-family="Arial" > 250</tspan></text>
	</g>
</g>
<g fill="none" color="black" stroke="currentColor" stroke-width="1.00" stroke-linecap="butt" stroke-linejoin="miter">
	<path stroke='black'  d='M53.9,257.0 L62.9,257.0 M615.0,257.0 L606.0,257.0  '/>	<g transform="translate(45.6,260.9)" stroke="none" fill="black" font-family="Arial" font-size="12.00"  text-anchor="end">
		<text><tspan font-family="Arial" > 300</tspan></text>
	</g>
</g>
<g fill="none" color="black" stroke="currentColor" stroke-width="1.00" stroke-linecap="butt" stroke-linejoin="miter">
	<path stroke='black'  d='M53.9,182.5 L62.9,182.5 M615.0,182.5 L606.0,182.5  '/>	<g transform="translate(45.6,186.4)" stroke="none" fill="black" font-family="Arial" font-size="12.00"  text-anchor="end">
		<text><tspan font-family="Arial" > 350</tspan></text>
	</g>
</g>
<g fill="none" color="black" stroke="currentColor" stroke-width="1.00" stroke-linecap="butt" stroke-linejoin="miter">
	<path stroke='black'  d='M53.9,107.9 L62.9,107.9 M615.0,107.9 L606.0,107.9  '/>	<g transform="translate(45.6,111.8)" stroke="none" fill="black" font-family="Arial" font-size="12.00"  text-anchor="end">
		<text><tspan font-family="Arial" > 400</tspan></text>
	</g>
</g>
<g fill="none" color="black" stroke="currentColor" stroke-width="1.00" stroke-linecap="butt" stroke-linejoin="miter">
	<path stroke='black'  d='M53.9,33.4 L62.9,33.4 M615.0,33.4 L606.0,33.4  '/>	<g transform="translate(45.6,37.3)" stroke="none" fill="black" font-family="Arial" font-size="12.00"  text-anchor="end">
		<text><tspan font-family="Arial" > 450</tspan></text>
	</g>
</g>
<g fill="none" color="black" stroke="currentColor" stroke-width="1.00" stroke-linecap="butt" stroke-linejoin="miter">
	<path stroke='black'  d='M53.9,392.0 L53.9,383.0 M53.9,18.1 L53.9,27.1  '/>	<g transform="translate(53.9,413.9)" stroke="none" fill="black" font-family="Arial" font-size="12.00"  text-anchor="middle">
		<text><tspan font-family="Arial" > 0</tspan></text>
	</g>
</g>
<g fill="none" color="black" stroke="currentColor" stroke-width="1.00" stroke-linecap="butt" stroke-linejoin="miter">
	<path stroke='black'  d='M110.6,392.0 L110.6,383.0 M110.6,18.1 L110.6,27.1  '/>	<g transform="translate(110.6,413.9)" stroke="none" fill="black" font-family="Arial" font-size="12.00"  text-anchor="middle">
		<text><tspan font-family="Arial" > 10</tspan></text>
	</g>
</g>
<g fill="none" color="black" stroke="currentColor" stroke-width="1.00" stroke-linecap="butt" stroke-linejoin="miter">
	<path stroke='black'  d='M167.3,392.0 L167.3,383.0 M167.3,18.1 L167.3,27.1  '/>	<g transform="translate(167.3,413.9)" stroke="none" fill="black" font-family="Arial" font-size="12.00"  text-anchor="middle">
		<text><tspan font-family="Arial" > 20</tspan></text>
	</g>
</g>
<g fill="none" color="black" stroke="currentColor" stroke-width="1.00" stroke-linecap="butt" stroke-linejoin="miter">
	<path stroke='black'  d='M223.9,392.0 L223.9,383.0 M223.9,18.1 L223.9,27.1  '/>	<g transform="translate(223.9,413.9)" stroke="none" fill="black" font-family="Arial" font-size="12.00"  text-anchor="middle">
		<text><tspan font-family="Arial" > 30</tspan></text>
	</g>
</g>
<g fill="none" color="black" stroke="currentColor" stroke-width="1.00" stroke-linecap="butt" stroke-linejoin="miter">
	<path stroke='black'  d='M280.6,392.0 L280.6,383.0 M280.6,18.1 L280.6,27.1  '/>	<g transform="translate(280.6,413.9)" stroke="none" fill="black" font-family="Arial" font-size="12.00"  text-anchor="middle">
		<text><tspan font-family="Arial" > 40</tspan></text>
	</g>
</g>
<g fill="none" color="black" stroke="currentColor" stroke-width="1.00" stroke-linecap="butt" stroke-linejoin="miter">
	<path stroke='black'  d='M337.3,392.0 L337.3,383.0 M337.3,18.1 L337.3,27.1  '/>	<g transform="translate(337.3,413.9)" stroke="none" fill="black" font-family="Arial" font-size="12.00"  text-anchor="middle">
		<text><tspan font-family="Arial" > 50</tspan></text>
	</g>
</g>
<g fill="none" color="black" stroke="currentColor" stroke-width="1.00" stroke-linecap="butt" stroke-linejoin="miter">
	<path stroke='black'  d='M394.0,392.0 L394.0,383.0 M394.0,18.1 L394.0,27.1  '/>	<g transform="translate(394.0,413.9)" stroke="none" fill="black" font-family="Arial" font-size="12.00"  text-anchor="middle">
		<text><tspan font-family="Arial" > 60</tspan></text>
	</g>
</g>
<g fill="none" color="black" stroke="currentColor" stroke-width="1.00" stroke-linecap="butt" stroke-linejoin="miter">
	<path stroke='black'  d='M450.6,392.0 L450.6,383.0 M450.6,18.1 L450.6,27.1  '/>	<g transform="translate(450.6,413.9)" stroke="none" fill="black" font-family="Arial" font-size="12.00"  text-anchor="middle">
		<text><tspan font-family="Arial" > 70</tspan></text>
	</g>
</g>
<g fill="none" color="black" stroke="currentColor" stroke-width="1.00" stroke-linecap="butt" stroke-linejoin="miter">
	<path stroke='black'  d='M507.3,392.0 L507.3,383.0 M507.3,18.1 L507.3,27.1  '/>	<g transform="translate(507.3,413.9)" stroke="none" fill="black" font-family="Arial" font-size="12.00"  text-anchor="middle">
		<text><tspan font-family="Arial" > 80</tspan></text>
	</g>
</g>
<g fill="none" color="black" stroke="currentColor" stroke-width="1.00" stroke-linecap="butt" stroke-linejoin="miter">
	<path stroke='black'  d='M564.0,392.0 L564.0,383.0 M564.0,18.1 L564.0,27.1  '/>	<g transform="translate(564.0,413.9)" stroke="none" fill="black" font-family="Arial" font-size="12.00"  text-anchor="middle">
		<text><tspan font-family="Arial" > 90</tspan></text>
	</g>
</g>
<g fill="none" color="black" stroke="currentColor" stroke-width="1.00" stroke-linecap="butt" stroke-linejoin="miter">
</g>
<g fill="none" color="black" stroke="currentColor" stroke-width="1.00" stroke-linecap="butt" stroke-linejoin="miter">
	<path stroke='black'  d='M53.9,18.1 L53.9,392.0 L615.0,392.0 L615.0,18.1 L53.9,18.1 Z  '/></g>
<g fill="none" color="black" stroke="currentColor" stroke-width="1.00" stroke-linecap="butt" stroke-linejoin="miter">
</g>
	<g id="gnuplot_plot_1" ><title>pages+cached+noexternal+nofonts+nosvg+noimg+nocss</title>
<g fill="none" color="black" stroke="currentColor" stroke-width="1.00" stroke-linecap="butt" stroke-linejoin="miter">
	<g transform="translate(529.1,431.9)" stroke="none" fill="black" font-family="Arial" font-size="12.00"  text-anchor="end">
		<text><tspan font-family="Arial" >pages+cached+noexternal+nofonts+nosvg+noimg+nocss</tspan></text>
	</g>
</g>
<g fill="none" color="black" stroke="currentColor" stroke-width="1.00" stroke-linecap="butt" stroke-linejoin="miter">
	<path stroke='rgb(148,   0, 211)'  d='M537.4,428.0 L579.6,428.0 M53.9,174.9 L59.6,158.9 L65.2,156.6 L70.9,175.8 L76.6,157.5 L82.2,158.5
		L87.9,169.7 L93.6,167.1 L99.2,149.4 L104.9,140.5 L110.6,159.0 L116.2,164.8 L121.9,155.9 L127.6,144.6
		L133.2,164.6 L138.9,164.1 L144.6,168.4 L150.3,153.2 L155.9,170.4 L161.6,162.3 L167.3,25.3 L172.9,144.5
		L178.6,149.2 L184.3,160.1 L189.9,165.2 L195.6,166.2 L201.3,157.4 L206.9,158.1 L212.6,160.5 L218.3,151.3
		L223.9,152.4 L229.6,151.7 L235.3,160.0 L240.9,165.3 L246.6,172.6 L252.3,145.5 L257.9,156.4 L263.6,174.7
		L269.3,165.3 L274.9,153.4 L280.6,169.5 L286.3,155.5 L291.9,153.2 L297.6,156.9 L303.3,148.1 L308.9,148.3
		L314.6,155.6 L320.3,177.6 L325.9,154.0 L331.6,175.9 L337.3,184.0 L343.0,164.0 L348.6,153.9 L354.3,152.5
		L360.0,152.4 L365.6,159.8 L371.3,157.3 L377.0,176.9 L382.6,152.5 L388.3,157.4 L394.0,163.2 L399.6,150.3
		L405.3,152.5 L411.0,168.2 L416.6,154.6 L422.3,125.1 L428.0,167.2 L433.6,159.8 L439.3,140.4 L445.0,142.5
		L450.6,151.6 L456.3,160.6 L462.0,153.4 L467.6,170.8 L473.3,162.5 L479.0,164.1 L484.6,151.6 L490.3,162.7
		L496.0,174.5 L501.6,168.2 L507.3,155.5 L513.0,173.9 L518.6,165.2 L524.3,154.1 L530.0,134.5 L535.7,156.1
		L541.3,173.8 L547.0,158.4 L552.7,157.9 L558.3,155.4 L564.0,159.0 L569.7,150.0 L575.3,166.7 L581.0,170.6
		L586.7,147.5 L592.3,171.0 L598.0,174.0 L603.7,145.3 L609.3,152.9 L615.0,170.2  '/></g>
	</g>
	<g id="gnuplot_plot_2" ><title>pages+cached+noexternal+nofonts+nosvg+noimg+nocss+nojs</title>
<g fill="none" color="black" stroke="currentColor" stroke-width="1.00" stroke-linecap="butt" stroke-linejoin="miter">
	<g transform="translate(529.1,449.9)" stroke="none" fill="black" font-family="Arial" font-size="12.00"  text-anchor="end">
		<text><tspan font-family="Arial" >pages+cached+noexternal+nofonts+nosvg+noimg+nocss+nojs</tspan></text>
	</g>
</g>
<g fill="none" color="black" stroke="currentColor" stroke-width="1.00" stroke-linecap="butt" stroke-linejoin="miter">
	<path stroke='rgb(  0, 158, 115)'  d='M537.4,446.0 L579.6,446.0 M53.9,372.7 L59.6,360.3 L65.2,375.4 L70.9,350.7 L76.6,353.3 L82.2,351.9
		L87.9,380.2 L93.6,361.3 L99.2,353.8 L104.9,356.5 L110.6,355.8 L116.2,370.5 L121.9,365.9 L127.6,344.4
		L133.2,376.9 L138.9,346.7 L144.6,356.3 L150.3,376.7 L155.9,365.3 L161.6,355.2 L167.3,346.0 L172.9,362.3
		L178.6,364.3 L184.3,353.8 L189.9,348.4 L195.6,352.5 L201.3,357.7 L206.9,366.1 L212.6,345.8 L218.3,368.9
		L223.9,344.1 L229.6,355.0 L235.3,346.6 L240.9,364.7 L246.6,372.2 L252.3,354.6 L257.9,363.0 L263.6,350.0
		L269.3,384.8 L274.9,357.7 L280.6,362.6 L286.3,348.4 L291.9,374.2 L297.6,356.5 L303.3,364.5 L308.9,352.1
		L314.6,356.6 L320.3,354.0 L325.9,344.0 L331.6,356.4 L337.3,352.3 L343.0,350.5 L348.6,353.8 L354.3,350.2
		L360.0,358.9 L365.6,376.8 L371.3,360.7 L377.0,366.5 L382.6,344.3 L388.3,359.4 L394.0,351.1 L399.6,370.2
		L405.3,358.4 L411.0,357.8 L416.6,352.1 L422.3,353.3 L428.0,346.7 L433.6,346.3 L439.3,380.9 L445.0,382.0
		L450.6,348.0 L456.3,346.9 L462.0,355.3 L467.6,376.9 L473.3,365.6 L479.0,347.3 L484.6,361.5 L490.3,353.3
		L496.0,377.3 L501.6,353.2 L507.3,353.4 L513.0,355.8 L518.6,354.0 L524.3,358.1 L530.0,339.4 L535.7,350.8
		L541.3,353.0 L547.0,374.1 L552.7,348.7 L558.3,348.8 L564.0,350.8 L569.7,360.1 L575.3,351.0 L581.0,348.5
		L586.7,366.6 L592.3,344.7 L598.0,343.1 L603.7,373.0 L609.3,366.7 L615.0,351.0  '/></g>
	</g>
	<g id="gnuplot_plot_3" ><title>score p10=2017</title>
<g fill="none" color="black" stroke="currentColor" stroke-width="1.00" stroke-linecap="butt" stroke-linejoin="miter">
	<g transform="translate(529.1,467.9)" stroke="none" fill="black" font-family="Arial" font-size="12.00"  text-anchor="end">
		<text><tspan font-family="Arial" >score p10=2017</tspan></text>
	</g>
</g>
<g fill="none" color="black" stroke="currentColor" stroke-width="1.00" stroke-linecap="butt" stroke-linejoin="miter">
	<path stroke='rgb( 86, 180, 233)'  d='M537.4,464.0 L579.6,464.0  '/></g>
	</g>
	<g id="gnuplot_plot_4" ><title>score median=4000</title>
<g fill="none" color="black" stroke="currentColor" stroke-width="1.00" stroke-linecap="butt" stroke-linejoin="miter">
	<g transform="translate(529.1,485.9)" stroke="none" fill="black" font-family="Arial" font-size="12.00"  text-anchor="end">
		<text><tspan font-family="Arial" >score median=4000</tspan></text>
	</g>
</g>
<g fill="none" color="black" stroke="currentColor" stroke-width="1.00" stroke-linecap="butt" stroke-linejoin="miter">
	<path stroke='rgb(230, 159,   0)'  d='M537.4,482.0 L579.6,482.0  '/></g>
	</g>
<g fill="none" color="#FFFFFF" stroke="rgb(230, 159,   0)" stroke-width="2.00" stroke-linecap="butt" stroke-linejoin="miter">
</g>
<g fill="none" color="black" stroke="currentColor" stroke-width="2.00" stroke-linecap="butt" stroke-linejoin="miter">
</g>
<g fill="none" color="black" stroke="black" stroke-width="1.00" stroke-linecap="butt" stroke-linejoin="miter">
</g>
<g fill="none" color="black" stroke="currentColor" stroke-width="1.00" stroke-linecap="butt" stroke-linejoin="miter">
	<path stroke='black'  d='M53.9,18.1 L53.9,392.0 L615.0,392.0 L615.0,18.1 L53.9,18.1 Z  '/></g>
<g fill="none" color="black" stroke="currentColor" stroke-width="1.00" stroke-linecap="butt" stroke-linejoin="miter">
</g>
</g>
</svg>
